Newaita-dark/apps/128/utilities-x-terminal.svg

<?xml version="1.0" encoding="UTF-8"?>
<svg xmlns="http://www.w3.org/2000/svg" xmlns:xlink="http://www.w3.org/1999/xlink" width="128pt" height="128pt" viewBox="0 0 128 128" version="1.1">
<defs>
<linearGradient id="linear0" gradientUnits="userSpaceOnUse" x1="254" y1="233.5" x2="254" y2="254.666672" gradientTransform="matrix(0.250024,0,0,0.250024,-2.646127,53.755133)">
<stop offset="0" style="stop-color:rgb(0%,0%,0%);stop-opacity:0.27451;"/>
<stop offset="1" style="stop-color:rgb(0%,0%,0%);stop-opacity:0;"/>
</linearGradient>
<radialGradient id="radial0" gradientUnits="userSpaceOnUse" cx="450.908936" cy="189.579361" fx="450.908936" fy="189.579361" r="21.166656" gradientTransform="matrix(0.000000696681,-0.31253,-0.562554,-0.000000406154,213.814755,254.38133)">
<stop offset="0" style="stop-color:rgb(0%,0%,0%);stop-opacity:0.313725;"/>
<stop offset="0.222222" style="stop-color:rgb(0%,0%,0%);stop-opacity:0.27451;"/>
<stop offset="1" style="stop-color:rgb(0%,0%,0%);stop-opacity:0;"/>
</radialGradient>
<radialGradient id="radial1" gradientUnits="userSpaceOnUse" cx="450.908936" cy="189.579361" fx="450.908936" fy="189.579361" r="21.166656" gradientTransform="matrix(-0.000000696681,0.31253,0.562554,0.000000406154,-86.802615,-30.109915)">
<stop offset="0" style="stop-color:rgb(0%,0%,0%);stop-opacity:0.313725;"/>
<stop offset="0.222222" style="stop-color:rgb(0%,0%,0%);stop-opacity:0.27451;"/>
<stop offset="1" style="stop-color:rgb(0%,0%,0%);stop-opacity:0;"/>
</radialGradient>
<radialGradient id="radial2" gradientUnits="userSpaceOnUse" cx="450.908936" cy="189.579361" fx="450.908936" fy="189.579361" r="21.166656" gradientTransform="matrix(-0.000000696681,-0.31253,0.562554,-0.000000406154,-86.802615,254.38133)">
<stop offset="0" style="stop-color:rgb(0%,0%,0%);stop-opacity:0.313725;"/>
<stop offset="0.222222" style="stop-color:rgb(0%,0%,0%);stop-opacity:0.27451;"/>
<stop offset="1" style="stop-color:rgb(0%,0%,0%);stop-opacity:0;"/>
</radialGradient>
<radialGradient id="radial3" gradientUnits="userSpaceOnUse" cx="450.908936" cy="189.579361" fx="450.908936" fy="189.579361" r="21.166656" gradientTransform="matrix(0.000000696681,0.31253,-0.562554,0.000000406154,213.814747,-30.109917)">
<stop offset="0" style="stop-color:rgb(0%,0%,0%);stop-opacity:0.313725;"/>
<stop offset="0.222222" style="stop-color:rgb(0%,0%,0%);stop-opacity:0.27451;"/>
<stop offset="1" style="stop-color:rgb(0%,0%,0%);stop-opacity:0;"/>
</radialGradient>
<linearGradient id="linear1" gradientUnits="userSpaceOnUse" x1="307.62677" y1="-22.391003" x2="305.954529" y2="-141.414581" gradientTransform="matrix(0.288294,0,0,0.762505,-19.636826,124.705969)">
<stop offset="0" style="stop-color:rgb(25.882353%,25.882353%,25.882353%);stop-opacity:1;"/>
<stop offset="1" style="stop-color:rgb(38.039216%,38.039216%,38.039216%);stop-opacity:1;"/>
</linearGradient>
</defs>
<g id="surface1">
<path style=" stroke:none;fill-rule:nonzero;fill:url(#linear0);" d="M 18.523438 112.429688 L 108.488281 112.429688 L 108.488281 117.429688 L 18.523438 117.429688 Z M 18.523438 112.429688 "/>
<path style=" stroke:none;fill-rule:nonzero;fill:url(#radial0);" d="M 108.488281 112.136719 L 119.074219 112.136719 L 119.074219 106.84375 L 108.488281 106.84375 Z M 108.488281 112.136719 "/>
<path style=" stroke:none;fill-rule:nonzero;fill:url(#radial1);" d="M 18.523438 112.136719 L 7.9375 112.136719 L 7.9375 117.429688 L 18.523438 117.429688 Z M 18.523438 112.136719 "/>
<path style=" stroke:none;fill-rule:nonzero;fill:url(#radial2);" d="M 18.523438 112.136719 L 7.9375 112.136719 L 7.9375 106.84375 L 18.523438 106.84375 Z M 18.523438 112.136719 "/>
<path style=" stroke:none;fill-rule:nonzero;fill:url(#radial3);" d="M 108.488281 112.136719 L 119.074219 112.136719 L 119.074219 117.429688 L 108.488281 117.429688 Z M 108.488281 112.136719 "/>
<path style=" stroke:none;fill-rule:nonzero;fill:url(#linear1);" d="M 13.230469 16.875 L 113.78125 16.875 C 116.703125 16.875 119.074219 19.113281 119.074219 21.875 L 119.074219 107.136719 C 119.074219 109.898438 116.703125 112.136719 113.78125 112.136719 L 13.230469 112.136719 C 10.308594 112.136719 7.9375 109.898438 7.9375 107.136719 L 7.9375 21.875 C 7.9375 19.113281 10.308594 16.875 13.230469 16.875 Z M 13.230469 16.875 "/>
<path style=" stroke:none;fill-rule:nonzero;fill:rgb(40.000001%,73.333335%,41.568628%);fill-opacity:0.94902;" d="M 34.625 50.632812 C 33.589844 49.597656 31.921875 49.597656 30.882812 50.632812 C 29.847656 51.671875 29.847656 53.339844 30.882812 54.375 L 38.367188 61.859375 L 30.882812 69.34375 C 29.847656 70.382812 29.847656 72.050781 30.882812 73.085938 C 31.921875 74.121094 33.589844 74.121094 34.625 73.085938 L 43.980469 63.730469 C 44.046875 63.667969 44.105469 63.597656 44.164062 63.53125 C 45.015625 62.488281 44.953125 60.960938 43.980469 59.988281 Z M 34.625 50.632812 "/>
<path style=" stroke:none;fill-rule:nonzero;fill:rgb(100%,100%,100%);fill-opacity:0.392157;" d="M 13.230469 16.875 C 10.296875 16.875 7.9375 19.105469 7.9375 21.875 L 7.9375 23.199219 C 7.9375 20.429688 10.296875 18.199219 13.230469 18.199219 L 113.78125 18.199219 C 116.714844 18.199219 119.074219 20.429688 119.074219 23.199219 L 119.074219 21.875 C 119.074219 19.105469 116.714844 16.875 113.78125 16.875 Z M 13.230469 16.875 "/>
<path style=" stroke:none;fill-rule:nonzero;fill:rgb(0%,0%,0%);fill-opacity:0.235294;" d="M 13.230469 112.171875 C 10.296875 112.171875 7.9375 109.941406 7.9375 107.175781 L 7.9375 105.851562 C 7.9375 108.621094 10.296875 110.847656 13.230469 110.847656 L 113.78125 110.847656 C 116.714844 110.847656 119.074219 108.621094 119.074219 105.851562 L 119.074219 107.175781 C 119.074219 109.941406 116.714844 112.171875 113.78125 112.171875 Z M 13.230469 112.171875 "/>
<path style=" stroke:none;fill-rule:nonzero;fill:rgb(6.666667%,6.666667%,6.666667%);fill-opacity:0.588235;" d="M 15.875 21.855469 C 14.242188 21.855469 12.917969 23.179688 12.917969 24.816406 L 12.917969 98.90625 C 12.917969 100.539062 14.242188 101.863281 15.875 101.863281 L 111.136719 101.863281 C 112.769531 101.863281 114.09375 100.539062 114.09375 98.90625 L 114.09375 24.816406 C 114.09375 23.179688 112.769531 21.855469 111.136719 21.855469 Z M 15.875 22.480469 L 111.136719 22.480469 C 112.433594 22.480469 113.46875 23.515625 113.46875 24.816406 L 113.46875 98.90625 C 113.46875 100.203125 112.433594 101.238281 111.136719 101.238281 L 15.875 101.238281 C 14.578125 101.238281 13.542969 100.203125 13.542969 98.90625 L 13.542969 24.816406 C 13.542969 23.515625 14.578125 22.480469 15.875 22.480469 Z M 15.875 22.480469 "/>
<path style=" stroke:none;fill-rule:nonzero;fill:rgb(40.000001%,73.333335%,41.568628%);fill-opacity:0.94902;" d="M 15.875 22.519531 C 14.609375 22.519531 13.578125 23.546875 13.578125 24.816406 L 13.578125 98.90625 C 13.578125 100.171875 14.609375 101.203125 15.875 101.203125 L 111.136719 101.203125 C 112.402344 101.203125 113.433594 100.171875 113.433594 98.90625 L 113.433594 24.816406 C 113.433594 23.546875 112.402344 22.519531 111.136719 22.519531 Z M 15.875 23.144531 L 111.136719 23.144531 C 112.066406 23.144531 112.808594 23.882812 112.808594 24.816406 L 112.808594 98.90625 C 112.808594 99.835938 112.066406 100.578125 111.136719 100.578125 L 15.875 100.578125 C 14.945312 100.578125 14.203125 99.835938 14.203125 98.90625 L 14.203125 24.816406 C 14.203125 23.882812 14.945312 23.144531 15.875 23.144531 Z M 15.875 23.144531 "/>
<path style="fill:none;stroke-width:3;stroke-linecap:round;stroke-linejoin:miter;stroke:rgb(12.941177%,12.941177%,12.941177%);stroke-opacity:1;stroke-miterlimit:4;" d="M 52.916822 -147.506445 L 455.081542 -147.506445 C 466.767926 -147.506445 476.251395 -138.554175 476.251395 -127.508355 L 476.251395 213.505955 C 476.251395 224.551775 466.767926 233.504045 455.081542 233.504045 L 52.916822 233.504045 C 41.230438 233.504045 31.746968 224.551775 31.746968 213.505955 L 31.746968 -127.508355 C 31.746968 -138.554175 41.230438 -147.506445 52.916822 -147.506445 Z M 52.916822 -147.506445 " transform="matrix(0.250024,0,0,0.250024,0,53.755133)"/>
</g>
</svg>

<svg xmlns="http://www.w3.org/2000/svg" width="128pt" height="128pt" viewBox="0 0 128 128"><defs><linearGradient id="a" gradientUnits="userSpaceOnUse" x1="254" y1="233.5" x2="254" y2="254.667" gradientTransform="matrix(.25002 0 0 .25002 -2.646 53.755)"><stop offset="0" stop-opacity=".275"/><stop offset="1" stop-opacity="0"/></linearGradient><radialGradient id="b" gradientUnits="userSpaceOnUse" cx="450.909" cy="189.579" fx="450.909" fy="189.579" r="21.167" gradientTransform="matrix(0 -.31253 -.56255 0 213.815 254.381)"><stop offset="0" stop-opacity=".314"/><stop offset=".222" stop-opacity=".275"/><stop offset="1" stop-opacity="0"/></radialGradient><radialGradient id="c" gradientUnits="userSpaceOnUse" cx="450.909" cy="189.579" fx="450.909" fy="189.579" r="21.167" gradientTransform="matrix(0 .31253 .56255 0 -86.803 -30.11)"><stop offset="0" stop-opacity=".314"/><stop offset=".222" stop-opacity=".275"/><stop offset="1" stop-opacity="0"/></radialGradient><radialGradient id="d" gradientUnits="userSpaceOnUse" cx="450.909" cy="189.579" fx="450.909" fy="189.579" r="21.167" gradientTransform="matrix(0 -.31253 .56255 0 -86.803 254.381)"><stop offset="0" stop-opacity=".314"/><stop offset=".222" stop-opacity=".275"/><stop offset="1" stop-opacity="0"/></radialGradient><radialGradient id="e" gradientUnits="userSpaceOnUse" cx="450.909" cy="189.579" fx="450.909" fy="189.579" r="21.167" gradientTransform="matrix(0 .31253 -.56255 0 213.815 -30.11)"><stop offset="0" stop-opacity=".314"/><stop offset=".222" stop-opacity=".275"/><stop offset="1" stop-opacity="0"/></radialGradient><linearGradient id="f" gradientUnits="userSpaceOnUse" x1="307.627" y1="-22.391" x2="305.955" y2="-141.415" gradientTransform="matrix(.2883 0 0 .7625 -19.637 124.706)"><stop offset="0" stop-color="#424242"/><stop offset="1" stop-color="#616161"/></linearGradient></defs><path d="M18.523 112.43h89.965v5H18.523zm0 0" fill="url(#a)"/><path d="M108.488 112.137h10.586v-5.293h-10.586zm0 0" fill="url(#b)"/><path d="M18.523 112.137H7.938v5.293h10.585zm0 0" fill="url(#c)"/><path d="M18.523 112.137H7.938v-5.293h10.585zm0 0" fill="url(#d)"/><path d="M108.488 112.137h10.586v5.293h-10.586zm0 0" fill="url(#e)"/><path d="M13.23 16.875h100.551c2.922 0 5.293 2.238 5.293 5v85.262c0 2.761-2.37 5-5.293 5H13.231c-2.922 0-5.293-2.239-5.293-5V21.875c0-2.762 2.37-5 5.292-5zm0 0" fill="url(#f)"/><path d="M34.625 50.633a2.643 2.643 0 0 0-3.742 0 2.643 2.643 0 0 0 0 3.742l7.484 7.484-7.484 7.485a2.643 2.643 0 0 0 0 3.742 2.643 2.643 0 0 0 3.742 0l9.355-9.356c.067-.062.125-.132.184-.199a2.64 2.64 0 0 0-.184-3.543zm0 0" fill="#66bb6a" fill-opacity=".949"/><path d="M13.23 16.875c-2.933 0-5.293 2.23-5.293 5v1.324c0-2.77 2.36-5 5.293-5h100.551c2.934 0 5.293 2.23 5.293 5v-1.324c0-2.77-2.36-5-5.293-5zm0 0" fill="#fff" fill-opacity=".392"/><path d="M13.23 112.172c-2.933 0-5.293-2.23-5.293-4.996v-1.324c0 2.77 2.36 4.996 5.293 4.996h100.551c2.934 0 5.293-2.227 5.293-4.996v1.324c0 2.765-2.36 4.996-5.293 4.996zm0 0" fill-opacity=".235"/><path d="M15.875 21.855a2.958 2.958 0 0 0-2.957 2.961v74.09a2.957 2.957 0 0 0 2.957 2.957h95.262a2.957 2.957 0 0 0 2.957-2.957v-74.09a2.958 2.958 0 0 0-2.957-2.96zm0 .625h95.262a2.322 2.322 0 0 1 2.332 2.336v74.09a2.32 2.32 0 0 1-2.332 2.332H15.875a2.32 2.32 0 0 1-2.332-2.332v-74.09c0-1.3 1.035-2.336 2.332-2.336zm0 0" fill="#111" fill-opacity=".588"/><path d="M15.875 22.52a2.298 2.298 0 0 0-2.297 2.296v74.09a2.3 2.3 0 0 0 2.297 2.297h95.262a2.3 2.3 0 0 0 2.297-2.297v-74.09a2.298 2.298 0 0 0-2.297-2.296zm0 .625h95.262c.93 0 1.672.738 1.672 1.671v74.09c0 .93-.743 1.672-1.672 1.672H15.875c-.93 0-1.672-.742-1.672-1.672v-74.09c0-.933.742-1.671 1.672-1.671zm0 0" fill="#66bb6a" fill-opacity=".949"/><path d="M13.23 16.875h100.551c2.922 0 5.293 2.238 5.293 5v85.262c0 2.761-2.37 5-5.293 5H13.231c-2.922 0-5.293-2.239-5.293-5V21.875c0-2.762 2.37-5 5.292-5zm0 0" fill="none" stroke-width=".7500600000000001" stroke-linecap="round" stroke="#212121"/></svg>
